images/footer/certified.svg

<svg width="78" height="120" viewBox="0 0 78 120" fill="none" xmlns="http://www.w3.org/2000/svg">
<path d="M10.292 4.08925C10.1147 3.80727 9.89458 3.55986 9.62928 3.34653C9.36398 3.1332 9.06489 2.96727 8.73054 2.84776C8.39568 2.72875 8.04593 2.669 7.68027 2.669C7.01156 2.669 6.4437 2.79789 5.97669 3.05468C5.51018 3.31246 5.13161 3.65665 4.84147 4.08925C4.55083 4.52184 4.34018 5.01418 4.20753 5.56579C4.07488 6.11789 4.00881 6.68875 4.00881 7.27789C4.00881 7.84184 4.07488 8.39097 4.20753 8.92332C4.34018 9.45665 4.55083 9.93665 4.84147 10.3628C5.13161 10.789 5.51018 11.1307 5.97669 11.388C6.4437 11.6448 7.01156 11.7732 7.68027 11.7732C8.58845 11.7732 9.2984 11.4976 9.80912 10.946C10.3203 10.3939 10.6323 9.66702 10.7456 8.76431H13.6222C13.5467 9.60381 13.3514 10.3628 13.0359 11.0399C12.7205 11.7169 12.3036 12.2942 11.7869 12.7702C11.2693 13.2468 10.6636 13.6107 9.96959 13.8616C9.27604 14.112 8.51293 14.2379 7.68027 14.2379C6.6454 14.2379 5.71487 14.0591 4.88867 13.7016C4.06246 13.3446 3.36493 12.8522 2.79757 12.2246C2.23021 11.5979 1.794 10.8611 1.49194 10.0147C1.18888 9.16826 1.03735 8.25616 1.03735 7.27789C1.03735 6.27443 1.18888 5.34307 1.49194 4.48431C1.794 3.62505 2.23021 2.87591 2.79757 2.2369C3.36493 1.5969 4.06246 1.09566 4.88867 0.731714C5.71487 0.368257 6.6454 0.186035 7.68027 0.186035C8.4245 0.186035 9.12799 0.293196 9.79025 0.506035C10.4525 0.719369 11.0452 1.02949 11.5688 1.43739C12.0925 1.8448 12.5247 2.34949 12.865 2.95147C13.2063 3.55295 13.4205 4.24332 13.5084 5.0206H10.6323C10.5817 4.68184 10.4684 4.37171 10.292 4.08925Z" fill="white"/>
<path d="M20.899 6.48799C20.5771 6.13737 20.0877 5.96108 19.4319 5.96108C19.0032 5.96108 18.6465 6.03367 18.3628 6.17737C18.0791 6.32157 17.8516 6.50034 17.6816 6.71317C17.5112 6.927 17.391 7.15268 17.322 7.3912C17.2524 7.62922 17.2112 7.84206 17.1992 8.03021H21.5707C21.4445 7.35268 21.2205 6.8391 20.899 6.48799ZM17.8615 11.6045C18.2644 11.9927 18.8452 12.1872 19.6023 12.1872C20.1449 12.1872 20.6114 12.0524 21.0029 11.7828C21.3938 11.5137 21.6333 11.2282 21.7217 10.927H24.0876C23.709 12.0934 23.1287 12.9275 22.3462 13.4292C21.5638 13.9305 20.6178 14.1813 19.5074 14.1813C18.7379 14.1813 18.0443 14.0593 17.4263 13.8149C16.8082 13.57 16.2841 13.2223 15.8554 12.7705C15.4266 12.3191 15.0947 11.7803 14.8617 11.1532C14.6282 10.5265 14.512 9.83614 14.512 9.08404C14.512 8.35713 14.6312 7.6791 14.8712 7.05194C15.1106 6.42478 15.4514 5.88305 15.8931 5.42527C16.3348 4.9675 16.8614 4.607 17.4735 4.34379C18.0851 4.08009 18.7632 3.94873 19.5074 3.94873C20.3401 3.94873 21.0655 4.10873 21.684 4.42774C22.302 4.74824 22.8103 5.17737 23.2072 5.71713C23.6047 6.25638 23.8918 6.87071 24.0687 7.56058C24.2451 8.24996 24.3077 8.97095 24.2575 9.72354H17.1992C17.237 10.5882 17.4576 11.2159 17.8615 11.6045Z" fill="white"/>
<path d="M28.0234 4.21194V6.01787H28.0611C28.1873 5.71713 28.3577 5.43762 28.5724 5.18034C28.7865 4.92355 29.0329 4.70429 29.3101 4.52206C29.5878 4.34083 29.8844 4.1991 30.1999 4.09885C30.5154 3.99861 30.8433 3.94873 31.1841 3.94873C31.3605 3.94873 31.5557 3.98034 31.7709 4.04256V6.52552C31.6437 6.50034 31.4931 6.47861 31.3158 6.45984C31.1399 6.44108 30.969 6.43169 30.8055 6.43169C30.3137 6.43169 29.8974 6.51367 29.5565 6.67614C29.2157 6.8391 28.941 7.06132 28.7333 7.34379C28.5247 7.62626 28.3766 7.95515 28.2882 8.33145C28.2002 8.70774 28.156 9.11515 28.156 9.55367V13.9369H25.4688V4.21194H28.0234Z" fill="white"/>
<path d="M38.9622 4.21194V5.99861H36.9934V10.8139C36.9934 11.2663 37.0699 11.5665 37.2214 11.7171C37.3729 11.8677 37.6755 11.9433 38.1286 11.9433C38.2801 11.9433 38.4257 11.9369 38.5643 11.924C38.7024 11.9122 38.8351 11.8934 38.9622 11.8677V13.9369C38.7352 13.9744 38.4818 13.9996 38.2041 14.0119C37.9279 14.0248 37.6561 14.0312 37.3913 14.0312C36.975 14.0312 36.58 14.0026 36.2079 13.9463C35.8358 13.89 35.5089 13.7808 35.2242 13.6174C34.9405 13.4539 34.7165 13.2223 34.552 12.9206C34.3881 12.6198 34.3071 12.2248 34.3071 11.7364V5.99861H32.679V4.21194H34.3071V1.29639H36.9934V4.21194H38.9622Z" fill="white"/>
<path d="M40.324 13.937H43.0113V4.21203H40.324V13.937ZM40.324 2.70734H43.0113V0.506348H40.324V2.70734Z" fill="white"/>
<path d="M44.1088 5.99869V4.21203H45.7175V3.45943C45.7175 2.59425 45.9882 1.8861 46.5307 1.334C47.0733 0.782397 47.894 0.506348 48.9915 0.506348C49.2304 0.506348 49.4714 0.51573 49.7114 0.534496C49.9493 0.553261 50.1833 0.569558 50.4104 0.581409V2.57548C50.0949 2.53746 49.7665 2.51869 49.4262 2.51869C49.061 2.51869 48.7987 2.60363 48.6412 2.77301C48.4837 2.9419 48.4052 3.22783 48.4052 3.62882V4.21203H50.2588V5.99869H48.4052V13.937H45.7175V5.99869H44.1088Z" fill="white"/>
<path d="M51.8864 13.937H54.5747V4.21203H51.8864V13.937ZM51.8864 2.70734H54.5747V0.506348H51.8864V2.70734Z" fill="white"/>
<path d="M61.8495 6.48799C61.5286 6.13737 61.0382 5.96108 60.3834 5.96108C59.9542 5.96108 59.5984 6.03367 59.3143 6.17737C59.0296 6.32157 58.803 6.50034 58.6331 6.71317C58.4627 6.927 58.343 7.15268 58.2729 7.3912C58.2039 7.62922 58.1631 7.84206 58.1507 8.03021H62.5217C62.3965 7.35268 62.1724 6.8391 61.8495 6.48799ZM58.8125 11.6045C59.2164 11.9927 59.7972 12.1872 60.5533 12.1872C61.0963 12.1872 61.5628 12.0524 61.9538 11.7828C62.3453 11.5137 62.5853 11.2282 62.6727 10.927H65.0381C64.6605 12.0934 64.0792 12.9275 63.2982 13.4292C62.5142 13.9305 61.5693 14.1813 60.4589 14.1813C59.6889 14.1813 58.9953 14.0593 58.3773 13.8149C57.7592 13.57 57.2351 13.2223 56.8068 12.7705C56.3771 12.3191 56.0462 11.7803 55.8132 11.1532C55.5802 10.5265 55.463 9.83614 55.463 9.08404C55.463 8.35713 55.5832 7.6791 55.8226 7.05194C56.0626 6.42478 56.4019 5.88305 56.8446 5.42527C57.2863 4.9675 57.8124 4.607 58.4245 4.34379C59.0365 4.08009 59.7142 3.94873 60.4589 3.94873C61.2916 3.94873 62.0174 4.10873 62.6355 4.42774C63.2535 4.74824 63.7613 5.17737 64.1592 5.71713C64.5562 6.25638 64.8433 6.87071 65.0192 7.56058C65.1966 8.24996 65.2587 8.97095 65.209 9.72354H58.1507C58.1885 10.5882 58.4086 11.2159 58.8125 11.6045Z" fill="white"/>
<path d="M73.2514 7.88906C73.1764 7.51968 73.0463 7.19326 72.8639 6.91129C72.6816 6.62882 72.4446 6.40067 72.154 6.22437C71.8638 6.04906 71.4987 5.96116 71.057 5.96116C70.6158 5.96116 70.2432 6.04906 69.9402 6.22437C69.6376 6.40067 69.3942 6.63227 69.2113 6.92067C69.028 7.20956 68.8964 7.53845 68.8149 7.90832C68.7319 8.2782 68.6922 8.66388 68.6922 9.06536C68.6922 9.44067 68.7354 9.81746 68.8228 10.1933C68.9118 10.5701 69.0543 10.9059 69.2496 11.2002C69.4453 11.495 69.6908 11.733 69.9879 11.9147C70.284 12.097 70.6412 12.1873 71.057 12.1873C71.4987 12.1873 71.8673 12.1004 72.1644 11.9241C72.4605 11.7488 72.697 11.5138 72.8739 11.2184C73.0492 10.9241 73.1764 10.5883 73.2514 10.2125C73.328 9.83622 73.3662 9.44758 73.3662 9.04659C73.3662 8.64561 73.328 8.25943 73.2514 7.88906ZM73.3662 12.6955C73.0492 13.2224 72.6364 13.6017 72.1257 13.8333C71.6149 14.0654 71.0381 14.1814 70.3943 14.1814C69.6619 14.1814 69.0196 14.0407 68.4646 13.7582C67.9087 13.4762 67.4516 13.094 67.0919 12.611C66.7317 12.1286 66.4605 11.574 66.2781 10.9463C66.0953 10.3197 66.0044 9.66734 66.0044 8.9898C66.0044 8.33795 66.0953 7.70783 66.2781 7.09943C66.4605 6.49104 66.7317 5.95524 67.0919 5.49055C67.4516 5.02734 67.9027 4.654 68.4453 4.37203C68.9873 4.08956 69.6182 3.94882 70.3376 3.94882C70.9184 3.94882 71.4699 4.07079 71.9925 4.31524C72.5171 4.56017 72.93 4.92067 73.2331 5.39721H73.2703V0.506348H75.9581V13.937H73.4035V12.6955H73.3662Z" fill="white"/>
<path d="M28.1436 73.8929H42.5438C47.5015 73.8929 50.6469 70.8869 50.6469 66.1976C50.6469 60.6074 46.1114 59.045 41.2705 59.045H28.1436V73.8929ZM28.1436 54.2346H39.6409C46.1716 54.2346 48.8335 51.8909 48.8335 47.3822C48.8335 41.4292 44.6006 40.5897 39.6409 40.5897H28.1436V54.2346ZM22.4014 35.7803H38.066C41.8771 35.7803 46.8974 35.7803 49.4972 37.3437C52.3395 39.0262 54.5762 42.0924 54.5762 46.3013C54.5762 50.8687 52.1587 54.2958 48.1668 55.9181V56.0385C53.4911 57.1205 56.3915 61.0889 56.3915 66.3798C56.3915 72.6894 51.8546 78.7023 43.2682 78.7023H22.4014V35.7803Z" fill="white"/>
<path d="M38.2339 19.6343C17.3393 19.6343 0.399414 36.4718 0.399414 57.2412C0.399414 78.0101 17.3393 94.8476 38.2339 94.8476C59.1314 94.8476 76.0708 78.0101 76.0708 57.2412C76.0708 36.4718 59.1314 19.6343 38.2339 19.6343ZM71.0813 57.2595C71.0813 75.2911 56.3771 89.9084 38.2339 89.9084C20.0937 89.9084 5.38893 75.2911 5.38893 57.2595C5.38893 39.2298 20.0937 24.6135 38.2339 24.6135C56.3771 24.6135 71.0813 39.2298 71.0813 57.2595Z" fill="white"/>
<path d="M7.38419 102.972C7.24806 102.026 6.3374 101.307 5.29259 101.307C3.4047 101.307 2.69375 102.906 2.69375 104.571C2.69375 106.153 3.4047 107.751 5.29259 107.751C6.57736 107.751 7.3047 106.873 7.46219 105.621H9.50161C9.2855 107.992 7.63856 109.509 5.29259 109.509C2.33356 109.509 0.592224 107.312 0.592224 104.571C0.592224 101.746 2.33356 99.5493 5.29259 99.5493C7.39661 99.5493 9.16328 100.775 9.41914 102.972H7.38419Z" fill="white"/>
<path d="M13.8914 108.043C15.1906 108.043 15.5786 106.938 15.5786 105.847C15.5786 104.743 15.1906 103.638 13.8914 103.638C12.6062 103.638 12.2152 104.743 12.2152 105.847C12.2152 106.938 12.6062 108.043 13.8914 108.043ZM13.8914 102.214C16.0754 102.214 17.4819 103.649 17.4819 105.847C17.4819 108.031 16.0754 109.469 13.8914 109.469C11.7213 109.469 10.3159 108.031 10.3159 105.847C10.3159 103.649 11.7213 102.214 13.8914 102.214Z" fill="white"/>
<path d="M18.5799 102.4H20.3863V103.677H20.4136C20.7609 102.812 21.6994 102.214 22.6255 102.214C22.7591 102.214 22.9186 102.239 23.0413 102.279V104.036C22.8639 103.997 22.5847 103.971 22.3577 103.971C20.9626 103.971 20.4792 104.97 20.4792 106.18V109.283H18.5799V102.4Z" fill="white"/>
<path d="M29.1993 105.862C29.1993 104.767 28.7571 103.638 27.539 103.638C26.2929 103.638 25.892 104.743 25.892 105.862C25.892 106.979 26.3203 108.043 27.5529 108.043C28.7994 108.043 29.1993 106.979 29.1993 105.862ZM24.0563 102.4H25.8662V103.277H25.892C26.3471 102.545 27.0968 102.214 27.9533 102.214C30.1254 102.214 31.1011 103.957 31.1011 105.913C31.1011 107.751 30.0851 109.469 28.0606 109.469C27.2309 109.469 26.4415 109.109 25.9859 108.43H25.9576V111.706H24.0563V102.4Z" fill="white"/>
<path d="M35.6003 108.043C36.9 108.043 37.2895 106.938 37.2895 105.847C37.2895 104.743 36.9 103.638 35.6003 103.638C34.316 103.638 33.9265 104.743 33.9265 105.847C33.9265 106.938 34.316 108.043 35.6003 108.043ZM35.6003 102.214C37.7848 102.214 39.1937 103.649 39.1937 105.847C39.1937 108.031 37.7848 109.469 35.6003 109.469C33.4312 109.469 32.0257 108.031 32.0257 105.847C32.0257 103.649 33.4312 102.214 35.6003 102.214Z" fill="white"/>
<path d="M40.4254 102.4H42.2338V103.677H42.2621C42.6089 102.812 43.5463 102.214 44.4709 102.214C44.6041 102.214 44.7655 102.239 44.8863 102.279V104.036C44.7124 103.997 44.4302 103.971 44.2031 103.971C42.8101 103.971 42.3272 104.97 42.3272 106.18V109.283H40.4254V102.4Z" fill="white"/>
<path d="M49.9493 105.913C49.6254 106.195 48.9572 106.205 48.367 106.313C47.7778 106.431 47.2422 106.634 47.2422 107.325C47.2422 108.031 47.7912 108.203 48.4087 108.203C49.8932 108.203 49.9493 107.033 49.9493 106.619V105.913ZM45.553 104.517C45.6618 102.745 47.2546 102.214 48.8091 102.214C50.1878 102.214 51.8502 102.519 51.8502 104.168V107.751C51.8502 108.378 51.9157 109.003 52.0931 109.283H50.162C50.0969 109.068 50.0408 108.843 50.0258 108.616C49.4252 109.243 48.5419 109.469 47.6978 109.469C46.3842 109.469 45.3409 108.817 45.3409 107.404C45.3409 105.847 46.5213 105.475 47.6978 105.315C48.8638 105.141 49.9493 105.182 49.9493 104.408C49.9493 103.598 49.3835 103.478 48.7162 103.478C47.9924 103.478 47.5244 103.77 47.4558 104.517H45.553Z" fill="white"/>
<path d="M55.7333 102.4H57.1268V103.664H55.7333V107.07C55.7333 107.712 55.8947 107.871 56.5361 107.871C56.7378 107.871 56.9256 107.857 57.1268 107.819V109.296C56.8034 109.35 56.3881 109.363 56.013 109.363C54.8509 109.363 53.8324 109.095 53.8324 107.725V103.664H52.6788V102.4H53.8324V100.334H55.7333V102.4Z" fill="white"/>
<path d="M58.0906 109.283H59.9924V102.4H58.0906V109.283ZM58.0906 101.333H59.9924V99.7749H58.0906V101.333Z" fill="white"/>
<path d="M64.584 108.043C65.8862 108.043 66.2732 106.938 66.2732 105.847C66.2732 104.743 65.8862 103.638 64.584 103.638C63.2992 103.638 62.9102 104.743 62.9102 105.847C62.9102 106.938 63.2992 108.043 64.584 108.043ZM64.584 102.214C66.7695 102.214 68.178 103.649 68.178 105.847C68.178 108.031 66.7695 109.469 64.584 109.469C62.4164 109.469 61.0114 108.031 61.0114 105.847C61.0114 103.649 62.4164 102.214 64.584 102.214Z" fill="white"/>
<path d="M69.4066 102.4H71.2155V103.359H71.2553C71.7377 102.585 72.5679 102.214 73.3727 102.214C75.3947 102.214 75.903 103.345 75.903 105.049V109.283H74.0012V105.394C74.0012 104.263 73.6653 103.702 72.7835 103.702C71.7501 103.702 71.3084 104.276 71.3084 105.675V109.283H69.4066V102.4Z" fill="white"/>
<path d="M0.540527 119.935H75.966V115.138H0.540527V119.935Z" fill="white"/>
<path d="M77.1017 99.9224C77.0541 99.8967 76.9761 99.8824 76.8692 99.8824H76.7063V100.273H76.8792C76.9607 100.273 77.0213 100.267 77.0615 100.251C77.1365 100.22 77.1743 100.165 77.1743 100.08C77.1743 100.002 77.1489 99.95 77.1017 99.9224ZM76.8951 99.752C77.0297 99.752 77.1281 99.7663 77.1917 99.7915C77.3039 99.8374 77.3596 99.9283 77.3596 100.065C77.3596 100.162 77.3248 100.233 77.2538 100.278C77.2165 100.303 77.1638 100.32 77.0968 100.331C77.1812 100.344 77.2443 100.379 77.2836 100.436C77.3218 100.494 77.3422 100.549 77.3422 100.604V100.683C77.3422 100.709 77.3427 100.735 77.3457 100.763C77.3472 100.792 77.3497 100.811 77.3551 100.819L77.3616 100.832H77.1812C77.1807 100.829 77.1807 100.826 77.1797 100.823C77.1788 100.819 77.1778 100.814 77.1768 100.81L77.1723 100.775V100.69C77.1723 100.565 77.1385 100.482 77.0704 100.442C77.0297 100.42 76.9587 100.408 76.8563 100.408H76.7063V100.832H76.5145V99.752H76.8951ZM76.3123 99.6977C76.1469 99.8626 76.0644 100.062 76.0644 100.297C76.0644 100.532 76.1464 100.735 76.3103 100.9C76.4763 101.066 76.6775 101.15 76.9139 101.15C77.1499 101.15 77.3516 101.066 77.5156 100.9C77.6815 100.735 77.765 100.532 77.765 100.297C77.765 100.062 77.6815 99.8626 77.5156 99.6977C77.3497 99.5317 77.1489 99.4483 76.9139 99.4483C76.678 99.4483 76.4792 99.5317 76.3123 99.6977ZM77.6155 100.994C77.4217 101.187 77.1877 101.283 76.9139 101.283C76.6397 101.283 76.4062 101.187 76.2134 100.994C76.0222 100.802 75.9258 100.568 75.9258 100.295C75.9258 100.025 76.0232 99.793 76.2169 99.6014C76.4092 99.4093 76.6407 99.3145 76.9139 99.3145C77.1877 99.3145 77.4217 99.4093 77.6155 99.6014C77.8087 99.792 77.9046 100.024 77.9046 100.295C77.9046 100.568 77.8087 100.801 77.6155 100.994Z" fill="white"/>
</svg>

<svg width="78" height="120" fill="none" xmlns="http://www.w3.org/2000/svg"><path d="M10.292 4.09a2.986 2.986 0 00-.663-.743 3.112 3.112 0 00-1.949-.678c-.668 0-1.236.129-1.703.386A3.217 3.217 0 004.84 4.089c-.29.433-.5.925-.633 1.477a7.304 7.304 0 00-.2 1.712c0 .564.067 1.113.2 1.645.132.534.343 1.014.633 1.44.29.426.67.768 1.136 1.025.467.257 1.035.385 1.703.385.908 0 1.618-.275 2.13-.827.51-.552.822-1.279.936-2.182h2.876c-.075.84-.27 1.599-.586 2.276a5.456 5.456 0 01-1.25 1.73 5.321 5.321 0 01-1.816 1.092 6.698 6.698 0 01-2.29.376c-1.035 0-1.965-.179-2.791-.536a5.967 5.967 0 01-2.091-1.477 6.518 6.518 0 01-1.306-2.21 8.06 8.06 0 01-.455-2.737c0-1.004.152-1.935.455-2.794a6.684 6.684 0 011.306-2.247A5.966 5.966 0 014.888.732C5.716.368 6.646.186 7.68.186c.745 0 1.448.107 2.11.32a5.72 5.72 0 011.779.931 5.03 5.03 0 011.296 1.514c.341.602.556 1.292.643 2.07h-2.876a2.41 2.41 0 00-.34-.932zm10.607 2.398c-.322-.35-.811-.527-1.467-.527-.429 0-.785.073-1.07.216a2.035 2.035 0 00-.68.536c-.17.214-.291.44-.36.678-.07.238-.11.451-.123.64h4.372c-.127-.678-.35-1.192-.672-1.543zm-3.038 5.116c.403.389.984.583 1.741.583.543 0 1.01-.135 1.4-.404.392-.27.631-.555.72-.856h2.366c-.379 1.166-.96 2-1.742 2.502-.782.502-1.728.752-2.839.752-.77 0-1.463-.122-2.08-.366a4.33 4.33 0 01-1.572-1.044 4.688 4.688 0 01-.993-1.618 5.887 5.887 0 01-.35-2.069c0-.727.12-1.405.36-2.032a4.761 4.761 0 011.021-1.627 4.808 4.808 0 011.58-1.081c.612-.264 1.29-.395 2.034-.395.833 0 1.558.16 2.177.479.618.32 1.126.75 1.523 1.29.398.538.685 1.153.862 1.843.176.689.239 1.41.189 2.163h-7.059c.038.864.259 1.492.662 1.88zm10.162-7.392v1.806h.038a3.355 3.355 0 011.249-1.496c.278-.181.574-.323.89-.423.315-.1.643-.15.984-.15.176 0 .372.031.587.094v2.483a5.19 5.19 0 00-.455-.066 4.826 4.826 0 00-.51-.028c-.492 0-.909.082-1.25.244-.34.163-.615.385-.823.668a2.667 2.667 0 00-.445.987 5.361 5.361 0 00-.132 1.223v4.383h-2.687V4.212h2.554zm10.939 0v1.787h-1.969v4.815c0 .452.077.752.228.903.152.15.455.226.908.226.151 0 .297-.006.435-.019a3.5 3.5 0 00.398-.056v2.069a6.46 6.46 0 01-.758.075c-.276.013-.548.02-.813.02-.416 0-.811-.03-1.183-.086a2.795 2.795 0 01-.984-.329 1.753 1.753 0 01-.672-.696c-.164-.301-.245-.696-.245-1.185V6H32.68V4.212h1.628V1.296h2.686v2.916h1.97zm1.362 9.725h2.687V4.212h-2.687v9.725zm0-11.23h2.687v-2.2h-2.687v2.2zm3.785 3.292V4.212h1.608v-.753c0-.865.271-1.573.814-2.125.542-.552 1.363-.828 2.46-.828.24 0 .48.01.72.028.238.02.472.036.7.047v1.994a8.23 8.23 0 00-.985-.056c-.365 0-.627.085-.785.254-.157.169-.236.455-.236.856v.583h1.854v1.787h-1.854v7.938h-2.688V5.999H44.11zm7.777 7.938h2.689V4.212h-2.689v9.725zm0-11.23h2.689v-2.2h-2.689v2.2zm9.964 3.781c-.321-.35-.812-.527-1.467-.527-.429 0-.785.073-1.069.216a1.98 1.98 0 00-1.041 1.214c-.07.238-.11.451-.122.64h4.37c-.124-.678-.349-1.192-.672-1.543zm-3.038 5.116c.404.389.985.583 1.741.583.543 0 1.01-.135 1.4-.404.392-.27.632-.555.72-.856h2.365c-.377 1.166-.959 2-1.74 2.502-.784.502-1.729.752-2.84.752-.77 0-1.463-.122-2.08-.366a4.326 4.326 0 01-1.571-1.044c-.43-.452-.76-.99-.994-1.618a5.898 5.898 0 01-.35-2.069c0-.727.12-1.405.36-2.032s.579-1.169 1.022-1.627a4.806 4.806 0 011.58-1.081c.611-.264 1.29-.395 2.034-.395.833 0 1.558.16 2.176.479.619.32 1.126.75 1.524 1.29a5.26 5.26 0 01.86 1.843c.178.689.24 1.41.19 2.163h-7.058c.037.864.258 1.492.661 1.88zM73.251 7.89a2.815 2.815 0 00-.387-.979 2.174 2.174 0 00-.71-.687c-.29-.175-.655-.263-1.097-.263-.441 0-.814.088-1.117.263a2.1 2.1 0 00-.729.697 3.05 3.05 0 00-.396.987 5.27 5.27 0 00-.123 1.157c0 .376.043.752.13 1.128.09.377.232.713.428 1.007.195.295.44.533.738.715.296.182.653.272 1.069.272.442 0 .81-.087 1.107-.263a2 2 0 00.71-.706 3.16 3.16 0 00.377-1.005 5.83 5.83 0 00.115-1.166c0-.401-.038-.788-.115-1.158zm.115 4.805c-.317.527-.73.907-1.24 1.138-.511.232-1.088.348-1.732.348-.732 0-1.374-.14-1.93-.423a3.862 3.862 0 01-1.372-1.147 5.16 5.16 0 01-.814-1.665 6.951 6.951 0 01-.274-1.956c0-.652.091-1.282.274-1.89a4.888 4.888 0 01.814-1.61c.36-.463.81-.836 1.353-1.118.542-.282 1.173-.423 1.893-.423.58 0 1.132.122 1.655.366.524.245.937.606 1.24 1.082h.037V.507h2.688v13.43h-2.555v-1.242h-.037zM28.144 73.893h14.4c4.958 0 8.103-3.006 8.103-7.695 0-5.59-4.536-7.153-9.377-7.153H28.145v14.848zm0-19.658H39.64c6.53 0 9.193-2.344 9.193-6.853 0-5.953-4.233-6.792-9.193-6.792H28.144v13.645zM22.4 35.78h15.665c3.811 0 8.831 0 11.431 1.564 2.843 1.682 5.08 4.748 5.08 8.957 0 4.568-2.418 7.995-6.41 9.617v.12c5.324 1.083 8.224 5.05 8.224 10.342 0 6.31-4.536 12.322-13.123 12.322H22.401V35.78z" fill="#fff"/><path d="M38.234 19.634C17.339 19.634.399 36.472.399 57.241c0 20.77 16.94 37.607 37.835 37.607 20.897 0 37.837-16.838 37.837-37.607 0-20.77-16.94-37.607-37.837-37.607zM71.08 57.26c0 18.031-14.704 32.648-32.847 32.648-18.14 0-32.845-14.617-32.845-32.648 0-18.03 14.705-32.646 32.845-32.646 18.143 0 32.847 14.616 32.847 32.645zM7.384 102.972c-.136-.946-1.047-1.665-2.091-1.665-1.888 0-2.6 1.599-2.6 3.264 0 1.582.712 3.18 2.6 3.18 1.284 0 2.012-.878 2.17-2.13h2.039c-.216 2.371-1.863 3.888-4.21 3.888-2.958 0-4.7-2.197-4.7-4.938 0-2.825 1.742-5.022 4.7-5.022 2.105 0 3.871 1.226 4.127 3.423H7.384zm6.507 5.071c1.3 0 1.688-1.105 1.688-2.196 0-1.104-.388-2.209-1.688-2.209-1.285 0-1.676 1.105-1.676 2.209 0 1.091.391 2.196 1.676 2.196zm0-5.829c2.184 0 3.59 1.435 3.59 3.633 0 2.184-1.406 3.622-3.59 3.622-2.17 0-3.575-1.438-3.575-3.622 0-2.198 1.405-3.633 3.575-3.633zm4.689.186h1.806v1.277h.028c.347-.865 1.285-1.463 2.211-1.463.134 0 .294.025.416.065v1.757a3.61 3.61 0 00-.683-.065c-1.395 0-1.879.999-1.879 2.209v3.103h-1.9V102.4zm10.62 3.462c0-1.095-.443-2.224-1.661-2.224-1.246 0-1.647 1.105-1.647 2.224 0 1.117.428 2.181 1.66 2.181 1.247 0 1.647-1.064 1.647-2.181zm-5.144-3.462h1.81v.877h.026c.455-.732 1.205-1.063 2.061-1.063 2.172 0 3.148 1.743 3.148 3.699 0 1.838-1.016 3.556-3.04 3.556-.83 0-1.62-.36-2.075-1.039h-.028v3.276h-1.902V102.4zm11.544 5.643c1.3 0 1.69-1.105 1.69-2.196 0-1.104-.39-2.209-1.69-2.209-1.284 0-1.674 1.105-1.674 2.209 0 1.091.39 2.196 1.674 2.196zm0-5.829c2.185 0 3.594 1.435 3.594 3.633 0 2.184-1.41 3.622-3.594 3.622-2.169 0-3.574-1.438-3.574-3.622 0-2.198 1.405-3.633 3.574-3.633zm4.825.186h1.809v1.277h.028c.347-.865 1.284-1.463 2.209-1.463.133 0 .295.025.415.065v1.757a3.577 3.577 0 00-.683-.065c-1.393 0-1.876.999-1.876 2.209v3.103h-1.902V102.4zm9.525 3.513c-.325.282-.993.292-1.583.4-.59.118-1.125.321-1.125 1.012 0 .706.55.878 1.167.878 1.484 0 1.54-1.17 1.54-1.584v-.706zm-4.397-1.396c.109-1.772 1.702-2.303 3.256-2.303 1.379 0 3.041.305 3.041 1.954v3.583c0 .627.066 1.252.243 1.532h-1.931a3.01 3.01 0 01-.136-.667c-.6.627-1.484.853-2.328.853-1.314 0-2.357-.652-2.357-2.065 0-1.557 1.18-1.929 2.357-2.089 1.166-.174 2.251-.133 2.251-.907 0-.81-.566-.93-1.233-.93-.724 0-1.192.292-1.26 1.039h-1.903zm10.18-2.117h1.394v1.264h-1.394v3.406c0 .642.162.801.803.801a3.1 3.1 0 00.59-.052v1.477a7.283 7.283 0 01-1.113.067c-1.162 0-2.18-.268-2.18-1.638v-4.061h-1.154V102.4h1.153v-2.066h1.901v2.066zm2.357 6.883h1.902V102.4h-1.901v6.883zm0-7.95h1.902v-1.558h-1.901v1.558zm6.494 6.71c1.302 0 1.69-1.105 1.69-2.196 0-1.104-.388-2.209-1.69-2.209-1.285 0-1.674 1.105-1.674 2.209 0 1.091.39 2.196 1.674 2.196zm0-5.829c2.185 0 3.594 1.435 3.594 3.633 0 2.184-1.409 3.622-3.594 3.622-2.168 0-3.573-1.438-3.573-3.622 0-2.198 1.405-3.633 3.573-3.633zm4.823.186h1.809v.959h.04c.482-.774 1.312-1.145 2.117-1.145 2.022 0 2.53 1.131 2.53 2.835v4.234h-1.902v-3.889c0-1.131-.336-1.692-1.218-1.692-1.033 0-1.475.574-1.475 1.973v3.608h-1.901V102.4zM.54 119.935h75.426v-4.797H.541v4.797zm76.562-20.013a.516.516 0 00-.233-.04h-.163v.391h.173a.53.53 0 00.182-.022c.075-.031.113-.086.113-.171 0-.078-.025-.13-.072-.158zm-.207-.17c.135 0 .233.014.297.04.112.045.168.136.168.273 0 .097-.035.168-.106.213a.402.402 0 01-.157.053.264.264 0 01.187.105.306.306 0 01.058.168v.079a.735.735 0 00.013.136l.007.013h-.18l-.002-.009-.003-.013-.005-.035v-.085c0-.125-.034-.208-.102-.248a.485.485 0 00-.214-.034h-.15v.424h-.192v-1.08h.381zm-.583-.054a.814.814 0 00-.248.599c0 .235.082.438.246.603.166.166.367.25.604.25a.816.816 0 00.602-.25.822.822 0 00.249-.603.814.814 0 00-.25-.6.82.82 0 00-.601-.249.82.82 0 00-.602.25zm1.303 1.296a.958.958 0 01-.701.289.953.953 0 01-.7-.289.956.956 0 01-.288-.699c0-.27.097-.502.29-.694a.948.948 0 01.698-.287.96.96 0 01.701.287c.194.191.29.423.29.694a.951.951 0 01-.29.699z" fill="#fff"/></svg>
